icons/svg/poi_colored/hunting_stand.svg

<?xml version="1.0" encoding="UTF-8" standalone="no"?>
<!-- Created with Inkscape (http://www.inkscape.org/) -->

<svg
   xmlns:dc="http://purl.org/dc/elements/1.1/"
   xmlns:cc="http://creativecommons.org/ns#"
   xmlns:rdf="http://www.w3.org/1999/02/22-rdf-syntax-ns#"
   xmlns:svg="http://www.w3.org/2000/svg"
   xmlns="http://www.w3.org/2000/svg"
   xmlns:sodipodi="http://sodipodi.sourceforge.net/DTD/sodipodi-0.dtd"
   xmlns:inkscape="http://www.inkscape.org/namespaces/inkscape"
   version="1.0"
   width="580"
   height="580"
   id="svg2"
   sodipodi:version="0.32"
   inkscape:version="0.48.4 r9939"
   sodipodi:docname="hunting_stand.svg"
   inkscape:output_extension="org.inkscape.output.svg.inkscape">
  <metadata
     id="metadata10">
    <rdf:RDF>
      <cc:Work
         rdf:about="">
        <dc:format>image/svg+xml</dc:format>
        <dc:type
           rdf:resource="http://purl.org/dc/dcmitype/StillImage" />
        <cc:license
           rdf:resource="http://web.resource.org/cc/PublicDomain" />
        <dc:language>en</dc:language>
        <dc:title />
      </cc:Work>
    </rdf:RDF>
  </metadata>
  <sodipodi:namedview
     inkscape:window-height="1021"
     inkscape:window-width="1680"
     inkscape:pageshadow="2"
     inkscape:pageopacity="0.0"
     guidetolerance="10.0"
     gridtolerance="10.0"
     objecttolerance="10.0"
     borderopacity="1.0"
     bordercolor="#666666"
     pagecolor="#ffffff"
     id="base"
     showgrid="false"
     inkscape:zoom="1"
     inkscape:cx="266.12764"
     inkscape:cy="243.49572"
     inkscape:window-x="0"
     inkscape:window-y="0"
     inkscape:current-layer="svg2"
     showguides="true"
     inkscape:guide-bbox="true"
     inkscape:window-maximized="1" />
  <defs
     id="defs4">
    <inkscape:perspective
       sodipodi:type="inkscape:persp3d"
       inkscape:vp_x="0 : 290 : 1"
       inkscape:vp_y="0 : 1000 : 0"
       inkscape:vp_z="580 : 290 : 1"
       inkscape:persp3d-origin="290 : 193.33333 : 1"
       id="perspective12" />
    <style
       type="text/css"
       id="style6">
   
    .fil0 {fill:#EF7900}
   
  </style>
    <inkscape:perspective
       id="perspective6807"
       inkscape:persp3d-origin="29.116032 : 19.410688 : 1"
       inkscape:vp_z="58.232063 : 29.116032 : 1"
       inkscape:vp_y="0 : 1000 : 0"
       inkscape:vp_x="0 : 29.116032 : 1"
       sodipodi:type="inkscape:persp3d" />
    <inkscape:perspective
       id="perspective6954"
       inkscape:persp3d-origin="290 : 193.33333 : 1"
       inkscape:vp_z="580 : 290 : 1"
       inkscape:vp_y="0 : 1000 : 0"
       inkscape:vp_x="0 : 290 : 1"
       sodipodi:type="inkscape:persp3d" />
    <inkscape:perspective
       id="perspective2541"
       inkscape:persp3d-origin="240 : 160 : 1"
       inkscape:vp_z="480 : 240 : 1"
       inkscape:vp_y="0 : 1000 : 0"
       inkscape:vp_x="0 : 240 : 1"
       sodipodi:type="inkscape:persp3d" />
    <inkscape:perspective
       id="perspective2750"
       inkscape:persp3d-origin="215 : 143.33333 : 1"
       inkscape:vp_z="430 : 215 : 1"
       inkscape:vp_y="0 : 1000 : 0"
       inkscape:vp_x="0 : 215 : 1"
       sodipodi:type="inkscape:persp3d" />
    <inkscape:perspective
       id="perspective2830"
       inkscape:persp3d-origin="0.5 : 0.33333333 : 1"
       inkscape:vp_z="1 : 0.5 : 1"
       inkscape:vp_y="0 : 1000 : 0"
       inkscape:vp_x="0 : 0.5 : 1"
       sodipodi:type="inkscape:persp3d" />
  </defs>
  <g
     id="g1327">
    <path
       d="M 66.275,1.768 C 24.94,1.768 1.704,23.139 1.704,66.804 L 1.704,516.927 C 1.704,557.771 22.598,579.156 63.896,579.156 L 515.92,579.156 C 557.227,579.156 578.149,558.84 578.149,516.927 L 578.149,66.804 C 578.149,24.203 557.227,1.768 514.627,1.768 C 514.624,1.768 66.133,1.625 66.275,1.768 z"
       style="fill:#111111;stroke:#eeeeee;stroke-width:3.40799999"
       id="path1329" />
  </g>
  <rect
     style="color:#000000;fill:#ffffff;fill-opacity:1;fill-rule:nonzero;stroke:none;stroke-width:25;marker:none;visibility:visible;display:inline;overflow:visible;enable-background:accumulate"
     id="rect3783"
     width="258"
     height="169.51472"
     x="63"
     y="258.39716" />
  <path
     sodipodi:type="arc"
     style="color:#000000;fill:#ffffff;fill-opacity:1;fill-rule:nonzero;stroke:none;stroke-width:25;marker:none;visibility:visible;display:inline;overflow:visible;enable-background:accumulate"
     id="path3785"
     sodipodi:cx="188.09041"
     sodipodi:cy="82.903931"
     sodipodi:rx="43.840622"
     sodipodi:ry="43.840622"
     d="m 231.93103,82.903931 a 43.840622,43.840622 0 1 1 -87.68124,0 43.840622,43.840622 0 1 1 87.68124,0 z"
     transform="translate(27.748737,1.267225)" />
  <path
     style="font-size:medium;font-style:normal;font-variant:normal;font-weight:normal;font-stretch:normal;text-indent:0;text-align:start;text-decoration:none;line-height:normal;letter-spacing:normal;word-spacing:normal;text-transform:none;direction:ltr;block-progression:tb;writing-mode:lr-tb;text-anchor:start;baseline-shift:baseline;color:#000000;fill:#ffffff;fill-opacity:1;stroke:none;stroke-width:39.29999924;marker:none;visibility:visible;display:inline;overflow:visible;enable-background:accumulate;font-family:Sans;-inkscape-font-specification:Sans"
     d="m 127.15625,159.20195 c -5.14599,0 -10.2603,3.09456 -13.89907,8.41006 -3.63876,5.31549 -5.75717,12.78645 -5.75717,20.30368 0,7.51723 2.11841,14.98819 5.75717,20.30368 3.63877,5.3155 8.75308,8.41006 13.89907,8.41006 l 203.65625,0 c 5.14599,0 10.2603,-3.09456 13.89907,-8.41006 3.63876,-5.31549 4.22892,-13.1256 5.75717,-20.30368 3,-14.09081 6.88159,-25.94415 3.24283,-31.25964 -3.63877,-5.3155 -17.75308,2.5459 -22.89907,2.5459 z"
     id="path3787"
     inkscape:connector-curvature="0"
     sodipodi:nodetypes="sssssssssss" />
  <path
     style="font-size:medium;font-style:normal;font-variant:normal;font-weight:normal;font-stretch:normal;text-indent:0;text-align:start;text-decoration:none;line-height:normal;letter-spacing:normal;word-spacing:normal;text-transform:none;direction:ltr;block-progression:tb;writing-mode:lr-tb;text-anchor:start;baseline-shift:baseline;color:#000000;fill:#ffffff;fill-opacity:1;stroke:none;stroke-width:39.29999924;marker:none;visibility:visible;display:inline;overflow:visible;enable-background:accumulate;font-family:Sans;-inkscape-font-specification:Sans"
     d="m 287.1875,124.94193 c -5.14599,0 -10.2603,2.11841 -13.89907,5.75718 -3.63876,3.63877 -7.75717,9.25308 -7.75717,14.39907 0,5.14599 -2.88159,18.2603 0.75717,21.89907 3.63877,3.63877 15.75308,-2.74282 20.89907,-2.74282 l 243.625,0 c 5.14599,0 10.2603,-2.11841 13.89907,-5.75718 3.63876,-3.63877 5.75717,-8.75308 5.75717,-13.89907 0,-5.14599 -2.11841,-10.2603 -5.75717,-13.89907 -3.63877,-3.63877 -8.75308,-5.75718 -13.89907,-5.75718 z"
     id="path3787-2"
     inkscape:connector-curvature="0"
     sodipodi:nodetypes="sssssssssss" />
  <path
     style="color:#000000;fill:#ffffff;fill-opacity:1;stroke:none;stroke-width:39.29999924;marker:none;visibility:visible;display:inline;overflow:visible;enable-background:accumulate"
     d="m 301,52.112893 33.60576,0 12.84595,9.722718 58.31974,0 11.78755,-9.722718 34.01816,0 0,37 -34.01816,0 -10.96613,-9.722718 -57.90904,0 -14.07807,9.722718 -33.60576,0 z"
     id="rect3807"
     inkscape:connector-curvature="0"
     sodipodi:nodetypes="ccccccccccccc" />
  <path
     style="fill:none;stroke:#ffffff;stroke-width:39.43700027;stroke-linecap:round;stroke-linejoin:round;stroke-miterlimit:4;stroke-opacity:1;stroke-dasharray:none"
     d="m 82.658245,347.81646 0,183.57876"
     id="path3829"
     inkscape:connector-curvature="0" />
  <path
     style="fill:none;stroke:#ffffff;stroke-width:39.43700027;stroke-linecap:round;stroke-linejoin:round;stroke-miterlimit:4;stroke-opacity:1;stroke-dasharray:none"
     d="m 301.36228,349.37221 0,183.57876"
     id="path3829-8"
     inkscape:connector-curvature="0" />
</svg>

<svg width="580" height="580" viewBox="0 0 580 580" fill="none" xmlns="http://www.w3.org/2000/svg">
<g clip-path="url(#clip0)">
<path d="M66.275 1.7679C24.94 1.7679 1.704 23.1389 1.704 66.8039V516.927C1.704 557.771 22.598 579.156 63.896 579.156H515.92C557.227 579.156 578.149 558.84 578.149 516.927V66.8039C578.149 24.2029 557.227 1.7679 514.627 1.7679C514.624 1.7679 66.133 1.6249 66.275 1.7679Z" fill="#111111" stroke="#EEEEEE" stroke-width="3.408"/>
<path d="M321 258.397H63V427.912H321V258.397Z" fill="white"/>
<path d="M259.68 84.1712C259.682 89.9296 258.549 95.6319 256.346 100.952C254.144 106.273 250.915 111.107 246.844 115.18C242.773 119.252 237.939 122.483 232.619 124.687C227.299 126.891 221.597 128.025 215.839 128.025C210.081 128.025 204.379 126.891 199.059 124.687C193.739 122.483 188.906 119.252 184.834 115.18C180.763 111.107 177.534 106.273 175.332 100.952C173.129 95.6319 171.997 89.9296 171.999 84.1712C171.997 78.4129 173.129 72.7106 175.332 67.3901C177.534 62.0696 180.763 57.2351 184.834 53.1627C188.906 49.0903 193.739 45.8598 199.059 43.6558C204.379 41.4518 210.081 40.3174 215.839 40.3174C221.597 40.3174 227.299 41.4518 232.619 43.6558C237.939 45.8598 242.773 49.0903 246.844 53.1627C250.915 57.2351 254.144 62.0696 256.346 67.3901C258.549 72.7106 259.682 78.4129 259.68 84.1712V84.1712Z" fill="white"/>
<path d="M127.156 159.202C122.01 159.202 116.896 162.297 113.257 167.612C109.618 172.928 107.5 180.399 107.5 187.916C107.5 195.433 109.618 202.904 113.257 208.219C116.896 213.535 122.01 216.63 127.156 216.63H330.813C335.958 216.63 341.073 213.535 344.712 208.219C348.35 202.904 348.941 195.094 350.469 187.916C353.469 173.825 357.35 161.972 353.712 156.656C350.073 151.341 335.958 159.202 330.813 159.202H127.156Z" fill="white"/>
<path d="M287.188 124.942C282.042 124.942 276.927 127.06 273.288 130.699C269.65 134.338 265.531 139.952 265.531 145.098C265.531 150.244 262.65 163.358 266.288 166.997C269.927 170.636 282.042 164.254 287.188 164.254H530.812C535.958 164.254 541.073 162.136 544.712 158.497C548.35 154.858 550.469 149.744 550.469 144.598C550.469 139.452 548.35 134.338 544.712 130.699C541.073 127.06 535.958 124.942 530.812 124.942H287.188Z" fill="white"/>
<path d="M301 52.1128H334.606L347.452 61.8355H405.771L417.559 52.1128H451.577V89.1128H417.559L406.593 79.3901H348.684L334.606 89.1128H301V52.1128Z" fill="white"/>
<path d="M82.6582 347.816V531.395" stroke="white" stroke-width="39.437" stroke-linecap="round" stroke-linejoin="round"/>
<path d="M301.362 349.372V532.951" stroke="white" stroke-width="39.437" stroke-linecap="round" stroke-linejoin="round"/>
</g>
<defs>
<clipPath id="clip0">
<path d="M0 0H580V580H0V0Z" fill="white"/>
</clipPath>
</defs>
</svg>
